Papirus/22x22/panel/skype-status-offline.svg

<?xml version="1.0" encoding="UTF-8" standalone="no"?>
<svg xmlns:osb="http://www.openswatchbook.org/uri/2009/osb" xmlns:dc="http://purl.org/dc/elements/1.1/" xmlns:cc="http://creativecommons.org/ns#" xmlns:rdf="http://www.w3.org/1999/02/22-rdf-syntax-ns#" xmlns:svg="http://www.w3.org/2000/svg" xmlns="http://www.w3.org/2000/svg" version="1.0" width="22" height="22" id="svg2817">
    <defs id="defs429">
        <linearGradient id="linearGradient5606" osb:paint="solid">
            <stop id="stop5608" offset="0" style="stop-color:#000000;stop-opacity:1;"/>
        </linearGradient>
    </defs>
    <metadata id="metadata57">
        <rdf:RDF>
            <cc:Work rdf:about="">
                <dc:format>
                    image/svg+xml
                </dc:format>
                <dc:type rdf:resource="http://purl.org/dc/dcmitype/StillImage"/>
                <dc:title/>
            </cc:Work>
        </rdf:RDF>
    </metadata>
    <path id="path4598" d="M 7 3 A 4 4 0 0 0 3 7 A 4 4 0 0 0 4.1152344 9.7695312 A 7 7 0 0 0 4 11 A 7 7 0 0 0 11 18 A 7 7 0 0 0 12.238281 17.886719 A 4 4 0 0 0 15 19 A 4 4 0 0 0 19 15 A 4 4 0 0 0 17.884766 12.230469 A 7 7 0 0 0 18 11 A 7 7 0 0 0 11 4 A 7 7 0 0 0 9.7617188 4.1132812 A 4 4 0 0 0 7 3 z M 8.7070312 7.3828125 L 11 9.6757812 L 13.292969 7.3828125 L 14.707031 8.796875 L 12.414062 11.089844 L 14.707031 13.382812 L 13.292969 14.796875 L 11 12.503906 L 8.7070312 14.796875 L 7.2929688 13.382812 L 9.5859375 11.089844 L 7.2929688 8.796875 L 8.7070312 7.3828125 z " style="opacity:0.3;fill:#ffffff;fill-opacity:1;stroke:none;stroke-width:2;stroke-linecap:round;stroke-linejoin:round;stroke-miterlimit:4;stroke-dasharray:none;stroke-opacity:1"/>
</svg>

<?xml version="1.0" encoding="UTF-8" standalone="no"?>
<svg id="svg2817" xmlns:rdf="http://www.w3.org/1999/02/22-rdf-syntax-ns#" xmlns="http://www.w3.org/2000/svg" xmlns:osb="http://www.openswatchbook.org/uri/2009/osb" height="22" width="22" version="1.0" xmlns:cc="http://creativecommons.org/ns#" xmlns:dc="http://purl.org/dc/elements/1.1/">
 <metadata id="metadata57">
  <rdf:RDF>
   <cc:Work rdf:about="">
    <dc:format>image/svg+xml</dc:format>
    <dc:type rdf:resource="http://purl.org/dc/dcmitype/StillImage"/>
    <dc:title/>
   </cc:Work>
  </rdf:RDF>
 </metadata>
 <path id="path4598" opacity=".3" d="m7 3a4 4 0 0 0 -4 4 4 4 0 0 0 1.1152 2.7695 7 7 0 0 0 -0.1152 1.2305 7 7 0 0 0 7 7 7 7 0 0 0 1.238 -0.113 4 4 0 0 0 2.762 1.113 4 4 0 0 0 4 -4 4 4 0 0 0 -1.115 -2.77 7 7 0 0 0 0.115 -1.23 7 7 0 0 0 -7 -7 7 7 0 0 0 -1.2383 0.1133 4 4 0 0 0 -2.7617 -1.1133zm1.707 4.3828l2.293 2.293 2.293-2.293 1.414 1.4141-2.293 2.2931 2.293 2.293-1.414 1.414-2.293-2.293-2.293 2.293-1.414-1.414 2.2929-2.293-2.2929-2.2931 1.414-1.4141z" fill="#fff"/>
</svg>
